svgs/sharp-solid/gas-pump-slash.svg

<svg xmlns="http://www.w3.org/2000/svg" viewBox="0 0 640 512"><!--! Font Awesome Pro 6.6.0 by @fontawesome - https://fontawesome.com License - https://fontawesome.com/license (Commercial License) Copyright 2024 Fonticons, Inc. --><path d="M96 0L384 0l0 275.4L521.4 382c4.2-6.3 6.6-13.9 6.6-22l0-136-48 0 0-128L432 48l32-32L576 128l0 40 0 24 0 32 0 136c0 19.2-6.2 37-16.6 51.5l61.6 47.8 19 14.7-29.4 37.9-19-14.7L19 52.7 0 38 29.4 .1l19 14.7L96 51.8 96 0zm0 171.6L384 398.5l0 17.5L96 416l0-244.4zM64 448l352 0 0 32 0 32L64 512l0-64z"/></svg>

<svg xmlns="http://www.w3.org/2000/svg" viewBox="0 0 640 512"><!--! Font Awesome Pro 6.4.2 by @fontawesome - https://fontawesome.com License - https://fontawesome.com/license (Commercial License) Copyright 2023 Fonticons, Inc. --><path d="M96 0H384V275.4L521.4 382c4.2-6.3 6.6-13.9 6.6-22V224H480V96L432 48l32-32L576 128v40 24 32V360c0 19.2-6.2 37-16.6 51.5l61.6 47.8 19 14.7-29.4 37.9-19-14.7L19 52.7 0 38 29.4 .1l19 14.7L96 51.8V0zm0 171.6L384 398.5V416H96V171.6zM64 448H416v32 32H64V448z"/></svg>
